public/assets/img/icon/about_icon01.svg

<svg width="28" height="32" viewBox="0 0 28 32" fill="none" xmlns="http://www.w3.org/2000/svg">
<path d="M13.5342 29.488C12.3111 31.0561 10.6844 31.4604 8.83751 31.3746C7.62663 31.3133 6.40352 31.3624 5.13149 31.3624C5.13149 30.3945 5.13149 29.4635 5.13149 28.4712C2.67304 28.6059 1.64563 26.5968 0.0678196 25.2492C1.2787 24.1956 2.1471 22.8358 3.68822 22.162C3.54145 21.9783 3.41914 21.819 3.28459 21.672C-0.543734 17.1514 -1.06967 10.9158 1.93918 5.80723C2.09818 5.54996 2.15933 5.20694 2.1838 4.90067C2.23272 4.33714 2.17157 3.7491 2.26941 3.19782C2.51404 1.54396 3.70045 0.28213 5.33942 0.0738671C6.5136 -0.0731422 7.72448 0.0493656 8.88643 0.0493656C8.88643 1.32345 9.00874 2.58528 8.84974 3.83486C8.66627 5.3662 7.21077 6.59128 5.65742 6.75054C5.13149 6.79954 4.59332 6.82404 4.06738 6.78729C3.6026 6.76279 3.38244 6.94655 3.17451 7.33858C-0.38473 14.052 3.4069 22.4683 10.7945 24.2324C18.1821 25.9965 25.2638 20.3979 25.2638 12.8024C25.2638 10.83 24.7868 8.96793 23.845 7.22832C23.6738 6.92205 23.4903 6.77504 23.1356 6.79954C22.7076 6.82404 22.2795 6.81179 21.8514 6.79954C19.8577 6.71379 18.3533 5.37845 18.1576 3.40608C18.0475 2.30351 18.1331 1.17644 18.1331 0.0371148C19.3318 0.0371148 20.4937 -0.0608914 21.6312 0.0616163C23.5026 0.26988 24.8969 1.86248 24.8847 3.76135C24.8725 4.85167 25.166 5.78273 25.6308 6.76279C28.077 11.9939 27.5144 16.9309 23.9674 21.5005C23.8084 21.7087 23.6249 21.9048 23.5393 22.015C24.7012 23.0686 25.8509 24.1099 27.074 25.2125C25.4718 26.5968 24.4444 28.6059 21.9859 28.4834C21.9859 29.4635 21.9859 30.37 21.9859 31.3624C21.5334 31.3624 21.1175 31.3624 20.7017 31.3624C19.5397 31.3624 18.3777 31.3746 17.2158 31.3624C15.7114 31.3256 14.5127 30.6763 13.5342 29.488ZM12.5435 26.4008C11.6996 26.4008 10.8801 26.4008 10.0728 26.4008C9.82822 26.4008 9.5836 26.413 9.33898 26.4498C7.85902 26.6458 6.78268 28.0424 7.00284 29.5125C8.03025 29.5125 9.0699 29.5737 10.0973 29.5002C11.6384 29.3777 12.7515 27.9566 12.5435 26.4008ZM14.5127 26.462C14.4149 27.9934 15.3567 29.292 16.8244 29.4635C17.9007 29.586 19.0138 29.488 20.1023 29.488C20.2369 28.0301 19.2706 26.6458 17.8885 26.4865C16.7877 26.364 15.6624 26.462 14.5127 26.462ZM7.08846 1.87473C4.25085 1.48271 3.73714 3.30807 4.11631 4.91292C6.41575 5.19469 7.40647 4.20238 7.08846 1.87473ZM23.0256 4.87617C23.2579 2.49952 22.2672 1.54396 20.0045 1.88698C19.6009 4.11662 20.775 5.2927 23.0256 4.87617ZM7.03954 25.237C5.32718 23.0441 3.76161 23.7669 2.77089 25.286C4.36093 27.1236 5.48619 27.1236 7.03954 25.237ZM20.0412 25.237C21.619 27.3196 23.1968 26.8663 24.3098 25.2247C22.8421 23.3626 21.6801 23.3626 20.0412 25.237Z" fill="white"/>
<path d="M12.9351 14.334C12.9351 13.6602 12.9229 12.9864 12.9351 12.3126C12.9963 10.4505 14.4762 8.98038 16.2987 8.95588C18.1211 8.93137 19.6745 10.3647 19.7478 12.2268C19.7968 13.6479 19.809 15.0813 19.7478 16.5146C19.6745 18.389 18.1333 19.7978 16.2987 19.7733C14.4518 19.7488 12.9963 18.291 12.9351 16.4166C12.9229 15.7183 12.9351 15.0323 12.9351 14.334ZM14.782 14.334C14.782 15.0078 14.7698 15.6816 14.782 16.3553C14.8065 17.2619 15.4547 17.9112 16.3109 17.9357C17.1915 17.9602 17.9009 17.3109 17.9254 16.3798C17.9499 15.0568 17.9499 13.7337 17.9254 12.4106C17.9132 11.4795 17.1915 10.8057 16.3354 10.818C15.467 10.8302 14.8065 11.5163 14.782 12.4596C14.7576 13.0599 14.782 13.6969 14.782 14.334Z" fill="white"/>
<path d="M9.23073 10.781C8.53356 10.781 7.97093 10.781 7.35938 10.781C7.35938 10.1807 7.35938 9.61718 7.35938 9.00464C8.54579 9.00464 9.75667 9.00464 11.0165 9.00464C11.0165 12.5574 11.0165 16.1101 11.0165 19.6996C10.4294 19.6996 9.87898 19.6996 9.23073 19.6996C9.23073 16.7471 9.23073 13.8069 9.23073 10.781Z" fill="white"/>
</svg>

<?xml version="1.0" encoding="UTF-8"?><svg id="Layer_1" xmlns="http://www.w3.org/2000/svg" width="27.12" height="31.39" viewBox="0 0 27.12 31.39"><defs><style>.cls-1,.cls-2{fill:#fff;}.cls-2{font-family:MyriadPro-Regular, 'Myriad Pro';font-size:17px;}</style></defs><path class="cls-1" d="M13.53,29.49c-1.22,1.57-2.85,1.97-4.7,1.89-1.21-.06-2.43-.01-3.71-.01v-2.89c-2.46.13-3.49-1.87-5.06-3.22,1.21-1.05,2.08-2.41,3.62-3.09-.15-.18-.27-.34-.4-.49C-.54,17.15-1.07,10.92,1.94,5.81c.16-.26.22-.6.24-.91.05-.56-.01-1.15.09-1.7C2.51,1.54,3.7.28,5.34.07c1.17-.15,2.39-.02,3.55-.02,0,1.27.12,2.54-.04,3.79-.18,1.53-1.64,2.76-3.19,2.92-.53.05-1.06.07-1.59.04-.46-.02-.68.16-.89.55-3.56,6.71.23,15.13,7.62,16.89,7.39,1.76,14.47-3.83,14.47-11.43,0-1.97-.48-3.83-1.42-5.57-.17-.31-.35-.45-.71-.43-.43.02-.86.01-1.28,0-1.99-.09-3.5-1.42-3.69-3.39-.11-1.1-.02-2.23-.02-3.37,1.2,0,2.36-.1,3.5.02,1.87.21,3.27,1.8,3.25,3.7-.01,1.09.28,2.02.75,3,2.45,5.23,1.88,10.17-1.66,14.74-.16.21-.34.4-.43.51,1.16,1.05,2.31,2.09,3.53,3.2-1.6,1.38-2.63,3.39-5.09,3.27v2.88h-1.28c-1.16,0-2.32.01-3.49,0-1.5-.04-2.7-.69-3.68-1.87ZM12.54,26.4h-2.47c-.24,0-.49.01-.73.05-1.48.2-2.56,1.59-2.34,3.06,1.03,0,2.07.06,3.09-.01,1.54-.12,2.65-1.54,2.45-3.1ZM14.51,26.46c-.1,1.53.84,2.83,2.31,3,1.08.12,2.19.02,3.28.02.13-1.46-.83-2.84-2.21-3-1.1-.12-2.23-.02-3.38-.02ZM7.09,1.87c-2.84-.39-3.35,1.43-2.97,3.04,2.3.28,3.29-.71,2.97-3.04ZM23.03,4.88c.23-2.38-.76-3.33-3.02-2.99-.4,2.23.77,3.41,3.02,2.99ZM7.04,25.24c-1.71-2.19-3.28-1.47-4.27.05,1.59,1.84,2.72,1.84,4.27-.05ZM20.04,25.24c1.58,2.08,3.16,1.63,4.27-.01-1.47-1.86-2.63-1.86-4.27.01Z"/><text class="cls-2" transform="translate(4.91 19.5)"><tspan x="0" y="0">29</tspan></text></svg>
